storage/app/icons/phosphoricons/regular/battery-plus.svg

<svg xmlns="http://www.w3.org/2000/svg" fill="currentColor" viewBox="0 0 256 256"><path d="M152 128a8 8 0 0 1-8 8h-20v20a8 8 0 0 1-16 0v-20H88a8 8 0 0 1 0-16h20v-20a8 8 0 0 1 16 0v20h20a8 8 0 0 1 8 8m72-48v96a24 24 0 0 1-24 24H32a24 24 0 0 1-24-24V80a24 24 0 0 1 24-24h168a24 24 0 0 1 24 24m-16 0a8 8 0 0 0-8-8H32a8 8 0 0 0-8 8v96a8 8 0 0 0 8 8h168a8 8 0 0 0 8-8Zm40 8a8 8 0 0 0-8 8v64a8 8 0 0 0 16 0V96a8 8 0 0 0-8-8"/></svg>

<svg xmlns="http://www.w3.org/2000/svg" viewBox="0 0 256 256" fill="currentColor"><path d="M152,128a8,8,0,0,1-8,8H124v20a8,8,0,0,1-16,0V136H88a8,8,0,0,1,0-16h20V100a8,8,0,0,1,16,0v20h20A8,8,0,0,1,152,128Zm72-48v96a24,24,0,0,1-24,24H32A24,24,0,0,1,8,176V80A24,24,0,0,1,32,56H200A24,24,0,0,1,224,80Zm-16,0a8,8,0,0,0-8-8H32a8,8,0,0,0-8,8v96a8,8,0,0,0,8,8H200a8,8,0,0,0,8-8Zm40,8a8,8,0,0,0-8,8v64a8,8,0,0,0,16,0V96A8,8,0,0,0,248,88Z"/></svg>
